X:10836
T:Miroirs - bourree
C:Gilles Chabenat
Z:abc transcription Simon Wascher
N:please mail errors to: simon.wascher@chello.at
M:2/4
L:1/8
K:G mixo
d3/2c/2 dG|GA AG|F3/2G/2 AF|AB ce|
d3/2c/2 dG|GA AG|F3/2G/2 AF|1cB c3/2B/2:|2cB c2||
|:gd dg|f3/2e/2 dc|fc cf|e3/2d/2 ef|
gd dg|fe dc|Af fe|1f2 ef:|2f2 e2|]
